packages/icons/svg/Fill/list-out.svg

<svg width="24" height="24" viewBox="0 0 24 24" fill="none" xmlns="http://www.w3.org/2000/svg">
<g id="Icon/Outline/ListOut">
<path id="Union" fill-rule="evenodd" clip-rule="evenodd" d="M3 4H10C10.55 4 11 4.45 11 5C11 5.55 10.55 6 10 6H3C2.45 6 2 5.55 2 5C2 4.45 2.45 4 3 4ZM3 11H10C10.55 11 11 11.45 11 12C11 12.55 10.55 13 10 13H3C2.45 13 2 12.55 2 12C2 11.45 2.45 11 3 11ZM10 18H3C2.45 18 2 18.45 2 19C2 19.55 2.45 20 3 20H10C10.55 20 11 19.55 11 19C11 18.45 10.55 18 10 18ZM19.0002 16.6437L20.3053 15.3837C20.7033 15.0007 21.3363 15.0117 21.7192 15.4087C22.1033 15.8067 22.0923 16.4397 21.6952 16.8227L18.6952 19.7197C18.5002 19.9057 18.2502 19.9997 18.0002 19.9997C17.7443 19.9997 17.4882 19.9027 17.2933 19.7067L14.2933 16.7067C13.9023 16.3167 13.9023 15.6837 14.2933 15.2927C14.6833 14.9027 15.3162 14.9027 15.7072 15.2927L17.0002 16.5857V7.35665L15.6952 8.61565C15.2983 8.99965 14.6652 8.98765 14.2812 8.59065C13.8973 8.19365 13.9082 7.56065 14.3053 7.17665L17.3053 4.27965C17.6993 3.90365 18.3223 3.90565 18.7073 4.29265L21.7073 7.29265C22.0972 7.68365 22.0972 8.31665 21.7073 8.70665C21.5123 8.90265 21.2563 8.99965 21.0002 8.99965C20.7442 8.99965 20.4883 8.90265 20.2933 8.70665L19.0002 7.41365V16.6437Z" fill="#000000"/>
</g>
</svg>

<svg fill="none" height="24" viewBox="0 0 24 24" width="24" xmlns="http://www.w3.org/2000/svg"><path clip-rule="evenodd" d="m3 4h7c.55 0 1 .45 1 1s-.45 1-1 1h-7c-.55 0-1-.45-1-1s.45-1 1-1zm0 7h7c.55 0 1 .45 1 1s-.45 1-1 1h-7c-.55 0-1-.45-1-1s.45-1 1-1zm7 7h-7c-.55 0-1 .45-1 1s.45 1 1 1h7c.55 0 1-.45 1-1s-.45-1-1-1zm9.0002-1.3563 1.3051-1.26c.398-.383 1.031-.372 1.4139.025.3841.398.3731 1.031-.024 1.414l-3 2.897c-.195.186-.445.28-.695.28-.256 0-.512-.097-.7069-.293l-3-3c-.391-.39-.391-1.023 0-1.414.39-.39 1.0229-.39 1.4139 0l1.293 1.293v-9.22905l-1.305 1.259c-.3969.384-1.03.372-1.414-.025-.3839-.397-.373-1.03.0241-1.414l3-2.897c.394-.376 1.017-.374 1.402.013l3 3c.3899.391.3899 1.024 0 1.414-.1951.196-.451.293-.7071.293-.256 0-.5119-.097-.7069-.293l-1.2931-1.293z" fill="#6b7280" fill-rule="evenodd"/></svg>
